!! 00000] TT[00
!! NN
!!!OTL: Da qiu qian
!!!ARE: Asia, China,ÿShandong, Yidu
!! Ethnic Group: Han
!! III, 371
!!!SCT: C0310
!!!YEM: Copyright 1995, estate of Helmut Schaffrath.
**kern
*ICvox
*Ivox
*M2/4
*k[]
*C:
{8g
8e
8g
8cc
=1
8a
8g
8g
8e
=2
4.g
8a
=3
2g}
=4
{8g
8e
8g
8cc
=5
8a
8g
8g
8e
=6
4.g
8a
=7
2g}
=8
{8g
8e
8ee
8dd
=9
4.cc
8a
=10
8g
8e
8ee
8dd
=11
8cc
8dd
8b
8a}
=12
{4g
8a
8cc
=13
8a
8g
8g
8e
=14
4.g
8a
=15
4g
4r}
=16
{8.a
16cc
8a
8g
=17
8a
8g
8a
8r
=18
4.cc
8a
=19
8g
8a
8cc
8r}
=20
{8.a
16cc
8a
8g
=21
4e
8g
8e
=22
4d
8d
8r
=23
8.e
16g
8e
8d
=24
4.c
8d
=25
4c
4r}
==
!!!AGN: Xiaodiao. Youchun yule
!! typisch. Eine Aufnahme existiert in Shanghai.
!!!ONB: ESAC (Essen Associative Code) Database: CHINA
!!!AMT: simple duple
!!!AIN: vox
!!!EED: Helmut Schaffrath
!!!EEV: 1.0
*-
